archdroid-icon-theme/Archdroid-Purple/apps/scalable/okular.svg

<svg fill="#9C27B0" height="48" viewBox="0 0 48 40" width="48" xmlns="http://www.w3.org/2000/svg"><path d="m10 6c-2.21 0-4 1.79-4 4v28c0 2.21 1.79 4 4 4h28c2.21 0 4-1.79 4-4v-13.390625c-.14593.134124-.289619.269989-.439453.398438-3.155278 2.704889-6.882586 4.048827-11.181641 4.048828-4.090016 0-6.97547-1.36919-8.644531-4.113282-1.669074-2.744085-1.869118-6.442457-.619141-11.107421.809519-3.021164 2.006519-5.634827 3.587891-7.835938zm18.78125 0c-1.384858 2.131358-2.488078 4.737653-3.3125 7.814453-1.158945 4.32522-1.26623 7.724289-.324219 10.207031.95856 2.469683 2.842904 3.703126 5.652344 3.703125 2.953145.000002 5.569265-1.21856 7.857422-3.662109 1.293338-1.381196 2.404178-3.081864 3.345703-5.097656v-8.964844c0-2.21-1.79-4-4-4z" fill="#2a85be" transform="translate(0 -4)"/></svg>

<svg fill="#9C27B0" height="48" version="1.1" viewBox="0 0 48 40" width="48" xmlns="http://www.w3.org/2000/svg"><path d="M10 6C7.79 6 6 7.79 6 10L6 38C6 40.21 7.79 42 10 42L38 42C40.21 42 42 40.21 42 38L42 24.609375C41.85407 24.743499 41.710381 24.879364 41.560547 25.007813 38.405269 27.712702 34.677961 29.05664 30.378906 29.056641 26.28889 29.056641 23.403436 27.687451 21.734375 24.943359 20.065301 22.199274 19.865257 18.500902 21.115234 13.835938 21.924753 10.814774 23.121752999999999 8.201111 24.703125 6L10 6zM28.78125 6C27.396392 8.131358 26.293172 10.737653 25.46875 13.814453 24.309805 18.139673 24.20252 21.538742 25.144531 24.021484 26.103091 26.491167 27.987435 27.72461 30.796875 27.724609 33.75002 27.724611 36.36614 26.506049 38.654297 24.0625 39.947635 22.681304 41.058475 20.980636 42 18.964844L42 10C42 7.79 40.21 6 38 6L28.78125 6z" fill="#2a85be" transform="translate(0 -4)"/></svg>
